docs/svg/top_right_crystals.svg

<svg width="259" height="355" viewBox="0 0 259 355" version="1.1" xmlns="http://www.w3.org/2000/svg" xmlns:xlink="http://www.w3.org/1999/xlink">
<title>top_right_crystals</title>
<desc>Created using Figma</desc>
<g id="Canvas" transform="translate(-4765 -2094)">
<g id="top_right_crystals">
<g id="Second from right">
<g id="Polygon 5">
<use xlink:href="#path0_fill" transform="matrix(0.896712 0.442477 0.425952 -0.904891 4794.8 2297.59)" fill="#97FFC3"/>
</g>
<g id="Polygon 4">
<use xlink:href="#path1_fill" transform="matrix(0.896712 0.442477 0.425952 -0.904891 4757.13 2279.18)" fill="#3ED38D"/>
</g>
<g id="Rectangle 13">
<use xlink:href="#path2_fill" transform="matrix(0.917476 0.396963 0.326796 -0.945836 4765.15 2250.58)" fill="url(#paint2_linear)"/>
</g>
<g id="Rectangle 14">
<use xlink:href="#path3_fill" transform="matrix(0.915982 0.400447 0.334398 -0.943131 4805.28 2255.71)" fill="url(#paint3_linear)"/>
</g>
<g id="Rectangle 15">
<use xlink:href="#path4_fill" transform="matrix(0.896712 0.442477 0.425952 -0.904891 4843.07 2273.38)" fill="url(#paint4_linear)"/>
</g>
<g id="Polygon 3">
<use xlink:href="#path5_fill" transform="matrix(0.896712 0.442477 0.425952 -0.904891 4767.26 2284.18)" fill="url(#paint5_linear)"/>
</g>
<g id="Rectangle 13">
<use xlink:href="#path6_fill" transform="matrix(0.917476 0.396963 0.326796 -0.945836 4759.6 2266.32)" fill="url(#paint6_linear)"/>
</g>
</g>
<g id="First from right">
<g id="Polygon 5">
<use xlink:href="#path7_fill" transform="matrix(0.998036 0.0626485 0.0493652 -0.998781 4945.01 2448.59)" fill="#97FFC3"/>
</g>
<g id="Polygon 4">
<use xlink:href="#path8_fill" transform="matrix(0.998036 0.0626485 0.0493652 -0.998781 4900.48 2446.16)" fill="#3ED38D"/>
</g>
<g id="Rectangle 13">
<use xlink:href="#path9_fill" transform="matrix(0.998707 -0.0199445 -0.0157359 -1.00074 4898.02 2394.9)" fill="url(#paint9_linear)"/>
</g>
<g id="Rectangle 14">
<use xlink:href="#path10_fill" transform="matrix(0.998894 -0.0137053 -0.0108113 -1.00074 4940 2386.13)" fill="url(#paint10_linear)"/>
</g>
<g id="Rectangle 15">
<use xlink:href="#path11_fill" transform="matrix(0.998036 0.0626485 0.0493652 -0.998781 4983.15 2375.06)" fill="url(#paint11_linear)"/>
</g>
<g id="Polygon 3">
<use xlink:href="#path12_fill" transform="matrix(0.998036 0.0626485 0.0493652 -0.998781 4914.53 2447.04)" fill="url(#paint12_linear)"/>
</g>
<g id="Rectangle 13">
<use xlink:href="#path13_fill" transform="matrix(0.998707 -0.0199445 -0.0157359 -1.00074 4898.23 2422.89)" fill="url(#paint13_linear)"/>
</g>
</g>
</g>
</g>
<defs>
<linearGradient id="paint2_linear" x1="0" y1="0" x2="1" y2="0" gradientUnits="userSpaceOnUse" gradientTransform="matrix(-1.95772 155.684 -64.4193 -1.01516 53.9156 -1.71466)">
<stop offset="0" stop-color="#219653"/>
<stop offset="0.701657" stop-color="#3D7F9B"/>
<stop offset="1" stop-color="#1C215D"/>
</linearGradient>
<linearGradient id="paint3_linear" x1="0" y1="0" x2="1" y2="0" gradientUnits="userSpaceOnUse" gradientTransform="matrix(1.02106e-14 169.53 -62.5194 -1.15201e-14 62.5194 5.15994)">
<stop offset="0" stop-color="#249769"/>
<stop offset="0.441989" stop-color="#98FFC3"/>
<stop offset="0.895028" stop-color="#1C215D"/>
</linearGradient>
<linearGradient id="paint4_linear" x1="0" y1="0" x2="1" y2="0" gradientUnits="userSpaceOnUse" gradientTransform="matrix(5.07747e-15 163.32 -23.8011 1.00251e-14 26.1343 2.98494)">
<stop offset="0" stop-color="#7AE9A8"/>
<stop offset="1" stop-color="#1C215D"/>
</linearGradient>
<linearGradient id="paint5_linear" x1="0" y1="0" x2="1" y2="0" gradientUnits="userSpaceOnUse" gradientTransform="matrix(-48.8548 -27.2911 42.8332 -35.5405 22.3727 44.3653)">
<stop offset="0" stop-color="#265D93"/>
<stop offset="0.812155" stop-color="#B1E8C9" stop-opacity="0.765371"/>
<stop offset="0.812255" stop-color="#B1E8C9" stop-opacity="0.758832"/>
<stop offset="0.895028" stop-color="#B1E8C9" stop-opacity="0.764157"/>
<stop offset="0.966851" stop-color="#B1E8C9" stop-opacity="0.367054"/>
<stop offset="0.966851" stop-color="#B1E8C9" stop-opacity="0.768777"/>
<stop offset="0.9998" stop-color="#B1E8C9" stop-opacity="0.764772"/>
<stop offset="0.9999" stop-color="#B1E8C9" stop-opacity="0.754967"/>
<stop offset="0.9999" stop-color="#B1E8C9" stop-opacity="0"/>
<stop offset="1" stop-color="#B1E8C9" stop-opacity="0.770573"/>
<stop offset="1" stop-color="#B1E8C9" stop-opacity="0.770573"/>
</linearGradient>
<linearGradient id="paint6_linear" x1="0" y1="0" x2="1" y2="0" gradientUnits="userSpaceOnUse" gradientTransform="matrix(-1.32872e-14 127.218 -52.5027 1.55683e-14 -50.1906 20.6147)">
<stop offset="0" stop-color="#2A9A5A"/>
<stop offset="1" stop-color="#219653" stop-opacity="0"/>
</linearGradient>
<linearGradient id="paint9_linear" x1="0" y1="0" x2="1" y2="0" gradientUnits="userSpaceOnUse" gradientTransform="matrix(2.6754 254.665 -64.0427 0.851012 54.7058 -3.43692)">
<stop offset="0" stop-color="#219653"/>
<stop offset="0.414365" stop-color="#218E54"/>
<stop offset="1" stop-color="#1C215D"/>
</linearGradient>
<linearGradient id="paint10_linear" x1="0" y1="0" x2="1" y2="0" gradientUnits="userSpaceOnUse" gradientTransform="matrix(6.12567e-14 292.622 -65.6912 9.60867e-15 65.1096 21.2233)">
<stop offset="0" stop-color="#249769"/>
<stop offset="0.325967" stop-color="#73EFA7"/>
<stop offset="0.816445" stop-color="#1C215D"/>
</linearGradient>
<linearGradient id="paint11_linear" x1="0" y1="0" x2="1" y2="0" gradientUnits="userSpaceOnUse" gradientTransform="matrix(-1.3175 232.881 -20.518 -0.147204 25.0349 5.24873)">
<stop offset="0" stop-color="#7AE9A8"/>
<stop offset="1" stop-color="#1C215D"/>
</linearGradient>
<linearGradient id="paint12_linear" x1="0" y1="0" x2="1" y2="0" gradientUnits="userSpaceOnUse" gradientTransform="matrix(-51.2076 -47.3155 44.896 -61.6177 21.2142 78.1243)">
<stop offset="0" stop-color="#265D93"/>
<stop offset="0.812155" stop-color="#B1E8C9" stop-opacity="0.765371"/>
<stop offset="0.812255" stop-color="#B1E8C9" stop-opacity="0.758832"/>
<stop offset="0.895028" stop-color="#B1E8C9" stop-opacity="0.764157"/>
<stop offset="0.966851" stop-color="#B1E8C9" stop-opacity="0.768777"/>
<stop offset="0.966851" stop-color="#B1E8C9" stop-opacity="0.367054"/>
<stop offset="0.9998" stop-color="#B1E8C9" stop-opacity="0.764772"/>
<stop offset="0.9999" stop-color="#B1E8C9" stop-opacity="0"/>
<stop offset="0.9999" stop-color="#B1E8C9" stop-opacity="0.754967"/>
<stop offset="1" stop-color="#B1E8C9" stop-opacity="0.770573"/>
<stop offset="1" stop-color="#B1E8C9" stop-opacity="0.770573"/>
</linearGradient>
<linearGradient id="paint13_linear" x1="0" y1="0" x2="1" y2="0" gradientUnits="userSpaceOnUse" gradientTransform="matrix(-1.41506e-14 219.449 -55.1863 2.6283e-14 -52.756 35.56)">
<stop offset="0" stop-color="#2A9A5A"/>
<stop offset="1" stop-color="#219653" stop-opacity="0"/>
</linearGradient>
<path id="path0_fill" d="M 0 0L 49.659 43.033L 35.0752 57.9935L 0 0Z"/>
<path id="path1_fill" d="M 41.7804 -2.05119e-05L 75.3042 53.9353L 0 46.5305L 41.7804 -2.05119e-05Z"/>
<path id="path2_fill" d="M 0 0L 39.7926 16.3046L 55.6365 179.956C 55.6365 179.956 37.6871 173.738 17.7543 166.969L 0 0Z"/>
<path id="path3_fill" d="M 0 5.15964C 11.2209 -2.19091 34.4797 -2.52548 42.7071 9.66332L 61.3126 174.76L 14.3701 168.361L 0 5.15964Z"/>
<path id="path4_fill" d="M 0 10.7094L 16.1121 0L 26.1336 166.305L 2.33255 166.305L 0 10.7094Z"/>
<path id="path5_fill" d="M 30.4797 0L 18.1092 26.5951L 0 15.9348L 30.4797 0Z"/>
<path id="path6_fill" d="M 0 16.7908L 39.8935 32.9944L 35.0155 15.0273C 35.0155 15.0273 27.2447 -11.2378 11.4514 5.67975L 0 16.7908Z"/>
<path id="path7_fill" d="M 0 0L 51.5345 75.2743L 36.1115 100.978L 0 0Z"/>
<path id="path8_fill" d="M 44.6066 0L 78.7451 86.1289L 0 81.8779L 44.6066 0Z"/>
<path id="path9_fill" d="M 0 0L 43.3607 26.5998L 61.0915 299.451C 61.0915 299.451 42.5047 297.283 19.0449 291.443L 0 0Z"/>
<path id="path10_fill" d="M 0 18.2239C 36.6274 -13.0896 31.5742 1.36879 44.0886 21.2232L 62.6101 286.369L 16.1716 291.527L 0 18.2239Z"/>
<path id="path11_fill" d="M 0 10.7199L 16.7454 0L 26.2603 276.869L 1.96952 276.869L 0 10.7199Z"/>
<path id="path12_fill" d="M 30.5319 0L 16.7454 47.3154L 0 26.9846L 30.5319 0Z"/>
<path id="path13_fill" d="M 0 28.9639L 42.4857 54.1111L 36.8053 25.9218C 36.8053 25.9218 28.6373 -19.385 12.0368 9.79747L 0 28.9639Z"/>
</defs>
</svg>

<svg width="259" height="355" viewBox="0 0 259 355" xmlns="http://www.w3.org/2000/svg" xmlns:xlink="http://www.w3.org/1999/xlink"><title>top_right_crystals</title><desc>Created using Figma</desc><use xlink:href="#a" transform="matrix(.89671 .44248 .42595 -.9049 29.8 203.59)" fill="#97FFC3"/><use xlink:href="#b" transform="matrix(.89671 .44248 .42595 -.9049 -7.87 185.18)" fill="#3ED38D"/><use xlink:href="#c" transform="matrix(.91748 .39696 .3268 -.94584 .15 156.58)" fill="url(#d)"/><use xlink:href="#e" transform="matrix(.91598 .40045 .3344 -.94313 40.28 161.71)" fill="url(#f)"/><use xlink:href="#g" transform="matrix(.89671 .44248 .42595 -.9049 78.07 179.38)" fill="url(#h)"/><use xlink:href="#i" transform="matrix(.89671 .44248 .42595 -.9049 2.26 190.18)" fill="url(#j)"/><use xlink:href="#k" transform="matrix(.91748 .39696 .3268 -.94584 -5.4 172.32)" fill="url(#l)"/><g><use xlink:href="#m" transform="matrix(.99804 .06265 .04937 -.99878 180.01 354.59)" fill="#97FFC3"/><use xlink:href="#n" transform="matrix(.99804 .06265 .04937 -.99878 135.48 352.16)" fill="#3ED38D"/><use xlink:href="#o" transform="matrix(.9987 -.01994 -.01574 -1.00074 133.02 300.9)" fill="url(#p)"/><use xlink:href="#q" transform="matrix(.9989 -.0137 -.01081 -1.00074 175 292.13)" fill="url(#r)"/><use xlink:href="#s" transform="matrix(.99804 .06265 .04937 -.99878 218.15 281.06)" fill="url(#t)"/><use xlink:href="#u" transform="matrix(.99804 .06265 .04937 -.99878 149.53 353.04)" fill="url(#v)"/><use xlink:href="#w" transform="matrix(.9987 -.01994 -.01574 -1.00074 133.23 328.89)" fill="url(#x)"/></g><defs><linearGradient id="d" x2="1" gradientUnits="userSpaceOnUse" gradientTransform="matrix(-1.95772 155.684 -64.4193 -1.01516 53.916 -1.715)"><stop offset="0" stop-color="#219653"/><stop offset=".702" stop-color="#3D7F9B"/><stop offset="1" stop-color="#1C215D"/></linearGradient><linearGradient id="f" x2="1" gradientUnits="userSpaceOnUse" gradientTransform="matrix(0 169.53 -62.5194 0 62.52 5.16)"><stop offset="0" stop-color="#249769"/><stop offset=".442" stop-color="#98FFC3"/><stop offset=".895" stop-color="#1C215D"/></linearGradient><linearGradient id="h" x2="1" gradientUnits="userSpaceOnUse" gradientTransform="matrix(0 163.32 -23.8011 0 26.134 2.985)"><stop offset="0" stop-color="#7AE9A8"/><stop offset="1" stop-color="#1C215D"/></linearGradient><linearGradient id="j" x2="1" gradientUnits="userSpaceOnUse" gradientTransform="matrix(-48.8548 -27.2911 42.8332 -35.5405 22.373 44.365)"><stop offset="0" stop-color="#265D93"/><stop offset=".812" stop-color="#B1E8C9" stop-opacity=".765"/><stop offset=".812" stop-color="#B1E8C9" stop-opacity=".759"/><stop offset=".895" stop-color="#B1E8C9" stop-opacity=".764"/><stop offset=".967" stop-color="#B1E8C9" stop-opacity=".367"/><stop offset=".967" stop-color="#B1E8C9" stop-opacity=".769"/><stop offset="1" stop-color="#B1E8C9" stop-opacity=".765"/><stop offset="1" stop-color="#B1E8C9" stop-opacity=".755"/><stop offset="1" stop-color="#B1E8C9" stop-opacity="0"/><stop offset="1" stop-color="#B1E8C9" stop-opacity=".771"/><stop offset="1" stop-color="#B1E8C9" stop-opacity=".771"/></linearGradient><linearGradient id="l" x2="1" gradientUnits="userSpaceOnUse" gradientTransform="matrix(0 127.218 -52.5027 0 -50.19 20.615)"><stop offset="0" stop-color="#2A9A5A"/><stop offset="1" stop-color="#219653" stop-opacity="0"/></linearGradient><linearGradient id="p" x2="1" gradientUnits="userSpaceOnUse" gradientTransform="matrix(2.6754 254.665 -64.0427 .85101 54.706 -3.437)"><stop offset="0" stop-color="#219653"/><stop offset=".414" stop-color="#218E54"/><stop offset="1" stop-color="#1C215D"/></linearGradient><linearGradient id="r" x2="1" gradientUnits="userSpaceOnUse" gradientTransform="matrix(0 292.622 -65.6912 0 65.11 21.223)"><stop offset="0" stop-color="#249769"/><stop offset=".326" stop-color="#73EFA7"/><stop offset=".816" stop-color="#1C215D"/></linearGradient><linearGradient id="t" x2="1" gradientUnits="userSpaceOnUse" gradientTransform="matrix(-1.3175 232.881 -20.518 -.1472 25.035 5.249)"><stop offset="0" stop-color="#7AE9A8"/><stop offset="1" stop-color="#1C215D"/></linearGradient><linearGradient id="v" x2="1" gradientUnits="userSpaceOnUse" gradientTransform="matrix(-51.2076 -47.3155 44.896 -61.6177 21.214 78.124)"><stop offset="0" stop-color="#265D93"/><stop offset=".812" stop-color="#B1E8C9" stop-opacity=".765"/><stop offset=".812" stop-color="#B1E8C9" stop-opacity=".759"/><stop offset=".895" stop-color="#B1E8C9" stop-opacity=".764"/><stop offset=".967" stop-color="#B1E8C9" stop-opacity=".769"/><stop offset=".967" stop-color="#B1E8C9" stop-opacity=".367"/><stop offset="1" stop-color="#B1E8C9" stop-opacity=".765"/><stop offset="1" stop-color="#B1E8C9" stop-opacity="0"/><stop offset="1" stop-color="#B1E8C9" stop-opacity=".755"/><stop offset="1" stop-color="#B1E8C9" stop-opacity=".771"/><stop offset="1" stop-color="#B1E8C9" stop-opacity=".771"/></linearGradient><linearGradient id="x" x2="1" gradientUnits="userSpaceOnUse" gradientTransform="matrix(0 219.449 -55.1863 0 -52.756 35.56)"><stop offset="0" stop-color="#2A9A5A"/><stop offset="1" stop-color="#219653" stop-opacity="0"/></linearGradient><path id="a" d="M0 0l49.659 43.033-14.584 14.96L0 0z"/><path id="b" d="M41.78 0l33.524 53.935L0 46.531 41.78 0z"/><path id="c" d="M0 0l39.793 16.305 15.843 163.651s-17.949-6.218-37.882-12.987L0 0z"/><path id="e" d="M0 5.16c11.22-7.35 34.48-7.685 42.707 4.503L61.313 174.76l-46.943-6.399L0 5.16z"/><path id="g" d="M0 10.71L16.112 0l10.022 166.305H2.333L0 10.709z"/><path id="i" d="M30.48 0L18.11 26.595 0 15.935 30.48 0z"/><path id="k" d="M0 16.79l39.894 16.204-4.878-17.967S27.245-11.238 11.45 5.68L0 16.79z"/><path id="m" d="M0 0l51.535 75.274-15.423 25.704L0 0z"/><path id="n" d="M44.607 0l34.138 86.129L0 81.878 44.607 0z"/><path id="o" d="M0 0l43.36 26.6L61.093 299.45s-18.587-2.168-42.047-8.008L0 0z"/><path id="q" d="M0 18.224c36.627-31.314 31.574-16.855 44.089 3L62.61 286.368l-46.438 5.158L0 18.224z"/><path id="s" d="M0 10.72L16.745 0l9.515 276.869H1.97L0 10.719z"/><path id="u" d="M30.532 0L16.745 47.315 0 26.985 30.532 0z"/><path id="w" d="M0 28.964L42.486 54.11l-5.68-28.19s-8.169-45.306-24.77-16.124L0 28.964z"/></defs></svg>
